src/icons/options.svg

<svg width="20" height="20" viewBox="0 0 20 20" version="1.1" xmlns="http://www.w3.org/2000/svg" xmlns:xlink="http://www.w3.org/1999/xlink">
<title>options</title>
<g id="Canvas" transform="translate(-3539 209)">
<use xlink:href="#path0_fill" transform="translate(3539.27 -209)" fill="#333333"/>
</g>
</g>
<defs>
<path id="path0_fill" d="M 17.1593 10.98C 17.1993 10.66 17.2293 10.34 17.2293 10C 17.2293 9.66 17.1993 9.34 17.1593 9.02L 19.2693 7.37C 19.4593 7.22 19.5093 6.95 19.3893 6.73L 17.3893 3.27C 17.2693 3.05 16.9993 2.97 16.7793 3.05L 14.2893 4.05C 13.7693 3.65 13.2093 3.32 12.5993 3.07L 12.2193 0.42C 12.1893 0.18 11.9793 0 11.7293 0L 7.72933 0C 7.47933 0 7.26933 0.18 7.23933 0.42L 6.85933 3.07C 6.24933 3.32 5.68933 3.66 5.16933 4.05L 2.67933 3.05C 2.44933 2.96 2.18933 3.05 2.06933 3.27L 0.0693315 6.73C -0.0606685 6.95 -0.000668362 7.22 0.189332 7.37L 2.29933 9.02C 2.25933 9.34 2.22933 9.67 2.22933 10C 2.22933 10.33 2.25933 10.66 2.29933 10.98L 0.189332 12.63C -0.000668362 12.78 -0.0506685 13.05 0.0693315 13.27L 2.06933 16.73C 2.18933 16.95 2.45933 17.03 2.67933 16.95L 5.16933 15.95C 5.68933 16.35 6.24933 16.68 6.85933 16.93L 7.23933 19.58C 7.26933 19.82 7.47933 20 7.72933 20L 11.7293 20C 11.9793 20 12.1893 19.82 12.2193 19.58L 12.5993 16.93C 13.2093 16.68 13.7693 16.34 14.2893 15.95L 16.7793 16.95C 17.0093 17.04 17.2693 16.95 17.3893 16.73L 19.3893 13.27C 19.5093 13.05 19.4593 12.78 19.2693 12.63L 17.1593 10.98ZM 9.72933 13.5C 7.79933 13.5 6.22933 11.93 6.22933 10C 6.22933 8.07 7.79933 6.5 9.72933 6.5C 11.6593 6.5 13.2293 8.07 13.2293 10C 13.2293 11.93 11.6593 13.5 9.72933 13.5Z"/>
</defs>
</svg>

<svg width="20" height="20" xmlns="http://www.w3.org/2000/svg" xmlns:xlink="http://www.w3.org/1999/xlink"><use xlink:href="#path0_fill" transform="translate(.27)" fill="#333"/><defs><path id="path0_fill" d="M17.16 10.98c.04-.32.07-.64.07-.98 0-.34-.03-.66-.07-.98l2.11-1.65c.19-.15.24-.42.12-.64l-2-3.46c-.12-.22-.39-.3-.61-.22l-2.49 1c-.52-.4-1.08-.73-1.69-.98L12.22.42a.488.488 0 0 0-.49-.42h-4c-.25 0-.46.18-.49.42l-.38 2.65c-.61.25-1.17.59-1.69.98l-2.49-1c-.23-.09-.49 0-.61.22l-2 3.46c-.13.22-.07.49.12.64L2.3 9.02c-.04.32-.07.65-.07.98 0 .33.03.66.07.98L.19 12.63c-.19.15-.24.42-.12.64l2 3.46c.12.22.39.3.61.22l2.49-1c.52.4 1.08.73 1.69.98l.38 2.65c.03.24.24.42.49.42h4c.25 0 .46-.18.49-.42l.38-2.65c.61-.25 1.17-.59 1.69-.98l2.49 1c.23.09.49 0 .61-.22l2-3.46c.12-.22.07-.49-.12-.64l-2.11-1.65zM9.73 13.5c-1.93 0-3.5-1.57-3.5-3.5s1.57-3.5 3.5-3.5 3.5 1.57 3.5 3.5-1.57 3.5-3.5 3.5z"/></defs></svg>
